overrides/.icons/wp/prop-light.svg

<?xml version="1.0" encoding="UTF-8" standalone="no"?>
<svg
   viewBox="0 0 24 24"
   version="1.1"
   id="svg1"
   sodipodi:docname="prop-light.svg"
   xml:space="preserve"
   inkscape:version="1.3.2 (091e20e, 2023-11-25, custom)"
   xmlns:inkscape="http://www.inkscape.org/namespaces/inkscape"
   xmlns:sodipodi="http://sodipodi.sourceforge.net/DTD/sodipodi-0.dtd"
   xmlns="http://www.w3.org/2000/svg"
   xmlns:svg="http://www.w3.org/2000/svg"><defs
     id="defs1"><inkscape:path-effect
       effect="fillet_chamfer"
       id="path-effect16"
       is_visible="true"
       lpeversion="1"
       nodesatellites_param="F,0,1,1,0,1.4522319,0,1 @ F,0,1,1,0,1.4522319,0,1 @ F,0,0,1,0,1.4522319,0,1"
       radius="0"
       unit="px"
       method="auto"
       mode="F"
       chamfer_steps="1"
       flexible="false"
       use_knot_distance="true"
       apply_no_radius="true"
       apply_with_radius="true"
       only_selected="false"
       hide_knots="false" /><inkscape:path-effect
       effect="fillet_chamfer"
       id="path-effect1"
       is_visible="true"
       lpeversion="1"
       nodesatellites_param="F,0,0,1,0,0,0,1 @ F,0,0,1,0,0,0,1 @ F,0,0,1,0,0,0,1"
       radius="0"
       unit="px"
       method="auto"
       mode="F"
       chamfer_steps="1"
       flexible="false"
       use_knot_distance="true"
       apply_no_radius="true"
       apply_with_radius="true"
       only_selected="false"
       hide_knots="false" /><linearGradient
       id="swatch1"
       inkscape:swatch="solid"><stop
         style="stop-color:#ef5552;stop-opacity:1;"
         offset="0"
         id="stop1" /></linearGradient><inkscape:path-effect
       effect="fillet_chamfer"
       id="path-effect15"
       is_visible="true"
       lpeversion="1"
       nodesatellites_param="F,0,0,1,0,0.48222331,0,1 @ F,0,1,1,0,0.48222331,0,1 @ F,0,1,1,0,0.48222331,0,1"
       radius="0"
       unit="px"
       method="auto"
       mode="F"
       chamfer_steps="1"
       flexible="false"
       use_knot_distance="true"
       apply_no_radius="true"
       apply_with_radius="true"
       only_selected="false"
       hide_knots="false" /><inkscape:path-effect
       effect="fillet_chamfer"
       id="path-effect14"
       is_visible="true"
       lpeversion="1"
       nodesatellites_param="F,0,0,1,0,0,0,1 @ F,0,0,1,0,0,0,1 @ F,0,0,1,0,0,0,1"
       radius="0"
       unit="px"
       method="auto"
       mode="F"
       chamfer_steps="1"
       flexible="false"
       use_knot_distance="true"
       apply_no_radius="true"
       apply_with_radius="true"
       only_selected="false"
       hide_knots="false" /><inkscape:path-effect
       effect="fillet_chamfer"
       id="path-effect13"
       is_visible="true"
       lpeversion="1"
       nodesatellites_param="F,0,1,1,0,1.0728753,0,1 @ F,0,1,1,0,1.0728753,0,1 @ F,0,1,1,0,1.0728753,0,1 @ F,0,1,1,0,1.0728753,0,1 @ F,0,0,1,0,1.0728753,0,1 @ F,0,1,1,0,1.0728753,0,1"
       radius="0"
       unit="px"
       method="auto"
       mode="F"
       chamfer_steps="1"
       flexible="false"
       use_knot_distance="true"
       apply_no_radius="true"
       apply_with_radius="true"
       only_selected="false"
       hide_knots="false" /><inkscape:path-effect
       effect="fillet_chamfer"
       id="path-effect12"
       is_visible="true"
       lpeversion="1"
       nodesatellites_param="F,0,0,1,0,0,0,1 @ F,0,0,1,0,0,0,1 @ F,0,0,1,0,0,0,1 @ F,0,0,1,0,0,0,1 @ F,0,0,1,0,0,0,1 @ F,0,0,1,0,0,0,1"
       radius="0"
       unit="px"
       method="auto"
       mode="F"
       chamfer_steps="1"
       flexible="false"
       use_knot_distance="true"
       apply_no_radius="true"
       apply_with_radius="true"
       only_selected="false"
       hide_knots="false" /><inkscape:path-effect
       effect="fillet_chamfer"
       id="path-effect11"
       is_visible="true"
       lpeversion="1"
       nodesatellites_param="F,0,0,1,0,0,0,1 @ F,0,0,1,0,0,0,1 @ F,0,0,1,0,0,0,1 @ F,0,0,1,0,0,0,1 @ F,0,0,1,0,0,0,1 @ F,0,0,1,0,0,0,1"
       radius="0"
       unit="px"
       method="auto"
       mode="F"
       chamfer_steps="1"
       flexible="false"
       use_knot_distance="true"
       apply_no_radius="true"
       apply_with_radius="true"
       only_selected="false"
       hide_knots="false" /><inkscape:path-effect
       effect="fillet_chamfer"
       id="path-effect10"
       is_visible="true"
       lpeversion="1"
       nodesatellites_param="F,0,0,1,0,0,0,1 @ F,0,0,1,0,0,0,1 @ F,0,0,1,0,0,0,1 @ F,0,0,1,0,0,0,1 @ F,0,0,1,0,0,0,1 @ F,0,0,1,0,0,0,1"
       radius="0"
       unit="px"
       method="auto"
       mode="F"
       chamfer_steps="1"
       flexible="false"
       use_knot_distance="true"
       apply_no_radius="true"
       apply_with_radius="true"
       only_selected="false"
       hide_knots="false" /><inkscape:path-effect
       effect="fillet_chamfer"
       id="path-effect9"
       is_visible="true"
       lpeversion="1"
       nodesatellites_param="F,0,0,1,0,0,0,1 @ F,0,0,1,0,0,0,1 @ F,0,0,1,0,0,0,1 @ F,0,0,1,0,0,0,1 @ F,0,0,1,0,0,0,1 @ F,0,0,1,0,0,0,1"
       radius="0"
       unit="px"
       method="auto"
       mode="F"
       chamfer_steps="1"
       flexible="false"
       use_knot_distance="true"
       apply_no_radius="true"
       apply_with_radius="true"
       only_selected="false"
       hide_knots="false" /><inkscape:path-effect
       effect="fillet_chamfer"
       id="path-effect8"
       is_visible="true"
       lpeversion="1"
       nodesatellites_param="F,0,0,1,0,0,0,1 @ F,0,0,1,0,0,0,1 @ F,0,0,1,0,0,0,1 @ F,0,0,1,0,0,0,1 @ F,0,0,1,0,0,0,1 @ F,0,0,1,0,0,0,1"
       radius="0"
       unit="px"
       method="auto"
       mode="F"
       chamfer_steps="1"
       flexible="false"
       use_knot_distance="true"
       apply_no_radius="true"
       apply_with_radius="true"
       only_selected="false"
       hide_knots="false" /><inkscape:path-effect
       effect="fillet_chamfer"
       id="path-effect7"
       is_visible="true"
       lpeversion="1"
       nodesatellites_param="F,0,0,1,0,0,0,1 @ F,0,0,1,0,0,0,1 @ F,0,0,1,0,0,0,1 @ F,0,0,1,0,0,0,1 @ F,0,0,1,0,0,0,1 @ F,0,0,1,0,0,0,1"
       radius="0"
       unit="px"
       method="auto"
       mode="F"
       chamfer_steps="1"
       flexible="false"
       use_knot_distance="true"
       apply_no_radius="true"
       apply_with_radius="true"
       only_selected="false"
       hide_knots="false" /><inkscape:path-effect
       effect="fillet_chamfer"
       id="path-effect6"
       is_visible="true"
       lpeversion="1"
       nodesatellites_param="F,0,0,1,0,0,0,1 @ F,0,0,1,0,0,0,1 @ F,0,0,1,0,0,0,1 @ F,0,0,1,0,0,0,1 @ F,0,0,1,0,0,0,1 @ F,0,0,1,0,0,0,1"
       radius="0"
       unit="px"
       method="auto"
       mode="F"
       chamfer_steps="1"
       flexible="false"
       use_knot_distance="true"
       apply_no_radius="true"
       apply_with_radius="true"
       only_selected="false"
       hide_knots="false" /><inkscape:path-effect
       effect="fillet_chamfer"
       id="path-effect5"
       is_visible="true"
       lpeversion="1"
       nodesatellites_param="F,0,0,1,0,0,0,1 @ F,0,0,1,0,0,0,1 @ F,0,0,1,0,0,0,1 @ F,0,0,1,0,0,0,1 @ F,0,0,1,0,0,0,1 @ F,0,0,1,0,0,0,1"
       radius="0"
       unit="px"
       method="auto"
       mode="F"
       chamfer_steps="1"
       flexible="false"
       use_knot_distance="true"
       apply_no_radius="true"
       apply_with_radius="true"
       only_selected="false"
       hide_knots="false" /><inkscape:path-effect
       effect="fillet_chamfer"
       id="path-effect4"
       is_visible="true"
       lpeversion="1"
       nodesatellites_param="F,0,0,1,0,0,0,1 @ F,0,0,1,0,0,0,1 @ F,0,0,1,0,0,0,1 @ F,0,0,1,0,0,0,1 @ F,0,0,1,0,1.1276705,0,1 @ F,0,0,1,0,1.2418038,0,1"
       radius="0"
       unit="px"
       method="auto"
       mode="F"
       chamfer_steps="1"
       flexible="false"
       use_knot_distance="true"
       apply_no_radius="true"
       apply_with_radius="true"
       only_selected="false"
       hide_knots="false" /><inkscape:path-effect
       effect="fillet_chamfer"
       id="path-effect3"
       is_visible="true"
       lpeversion="1"
       nodesatellites_param="F,0,0,1,0,0,0,1 @ F,0,0,1,0,0,0,1 @ F,0,0,1,0,0,0,1 @ F,0,0,1,0,0,0,1 @ F,0,0,1,0,0,0,1 @ F,0,0,1,0,0,0,1"
       radius="0"
       unit="px"
       method="auto"
       mode="F"
       chamfer_steps="1"
       flexible="false"
       use_knot_distance="true"
       apply_no_radius="true"
       apply_with_radius="true"
       only_selected="false"
       hide_knots="false" /><inkscape:path-effect
       effect="fillet_chamfer"
       id="path-effect2"
       is_visible="true"
       lpeversion="1"
       nodesatellites_param="F,0,0,1,0,0,0,1 @ F,0,0,1,0,0,0,1 @ F,0,0,1,0,0,0,1 @ F,0,0,1,0,0,0,1 @ F,0,0,1,0,0,0,1 @ F,0,0,1,0,0,0,1"
       radius="0"
       unit="px"
       method="auto"
       mode="F"
       chamfer_steps="1"
       flexible="false"
       use_knot_distance="true"
       apply_no_radius="true"
       apply_with_radius="true"
       only_selected="false"
       hide_knots="false" /><radialGradient
       id="lorc-spiky-eclipse-gradient-0"><stop
         offset="0%"
         stop-color="#000"
         stop-opacity="1"
         id="stop1-8" /><stop
         offset="100%"
         stop-color="#000"
         stop-opacity="1"
         id="stop2" /></radialGradient></defs><sodipodi:namedview
     id="namedview1"
     pagecolor="#ffffff"
     bordercolor="#666666"
     borderopacity="1.0"
     inkscape:showpageshadow="true"
     inkscape:pageopacity="0.0"
     inkscape:pagecheckerboard="true"
     inkscape:deskcolor="#d1d1d1"
     inkscape:zoom="15.821514"
     inkscape:cx="0.56884568"
     inkscape:cy="9.7019791"
     inkscape:window-width="1366"
     inkscape:window-height="697"
     inkscape:window-x="-8"
     inkscape:window-y="-8"
     inkscape:window-maximized="1"
     inkscape:current-layer="svg1"
     showgrid="true"><inkscape:grid
       id="grid1"
       units="px"
       originx="0"
       originy="0"
       spacingx="1"
       spacingy="1"
       empcolor="#3f3fff"
       empopacity="0.25098039"
       color="#3f3fff"
       opacity="0.1254902"
       empspacing="5"
       dotted="false"
       gridanglex="30"
       gridanglez="30"
       visible="true" /></sodipodi:namedview><path
     id="path6"
     d=""
     style="stroke-width:0.999998" /><path
     d="m 1.7499997,1.7512857 c 0,0 7.831,-0.37925 14.0015003,8.077 C 20.487,16.316534 22.25,22.251284 22.25,22.251284 l -1.9885,-1.025 c -1.476,-2.5625 -2.24475,-3.61825 -3.69,-5.125 -2.59325,0.7585 -5.29925,0.66625 -7.6465003,-2.05 2.0500003,-0.574 3.6900003,-0.44075 6.1090003,-0.19475 -2.71625,-1.85525 -4.5715,-2.26525 -7.1340003,-1.85525 l -1.025,-2.0499993 c 1.845,-0.348499 3.075,-0.379249 4.8995003,0.041 C 9.7552497,8.5675357 8.3509997,7.7680357 5.8499997,7.9012857 l -1.24025,-1.97825 c 1.599,-0.11275 2.5625,0.0615 4.39725,0.5125 -1.65025,-1.4965 -3.157,-2.173 -5.3505,-2.30625 0,0 -1.07625,-1.93725 -1.9065,-2.378 z"
     id="path1"
     style="stroke-width:1" /><path
     d="m 18.457489,2.1605887 c 0,0 2.946809,1.5162337 3.418403,5.9158963 0.362223,3.375959 -0.2467,5.921072 -0.2467,5.921072 l -0.511289,-0.795483 c 0.0013,-1.249992 -0.05702,-1.798939 -0.267623,-2.655958 C 19.740675,10.275699 18.7696,9.6700226 18.484426,8.1796116 19.356173,8.4027535 19.928358,8.798142 20.761878,9.3994444 20.159657,8.1462286 19.567168,7.6040395 18.542472,7.2125466 l 0.05805,-0.967065 c 0.749044,0.2623645 1.205803,0.5110654 1.784871,1.050508 C 19.947331,6.347674 19.602255,5.7582204 18.658564,5.2784174 l -0.03591,-0.9862945 c 0.609168,0.2966703 0.925043,0.5640957 1.501365,1.1169575 -0.287818,-0.8965926 -0.69641,-1.4626846 -1.471211,-1.9750536 0,0 0.01546,-0.936624 -0.195317,-1.2734381 z"
     id="path1-6"
     style="stroke-width:0.999991" /><path
     d="m 2.0043714,15.86986 c 0,0 3.155848,-1.011569 6.6003468,1.765995 2.6432938,2.131033 4.0123878,4.361273 4.0123878,4.361273 L 11.693078,21.796172 C 10.81012,20.911375 10.380717,20.56445 9.6257932,20.107365 8.6499704,20.70076 7.5350391,20.959136 6.2795107,20.106905 7.0537142,19.648272 7.7378916,19.523258 8.7524647,19.359055 7.4404726,18.898732 6.6381341,18.9343 5.6367372,19.382045 L 4.9939666,18.657176 C 5.7091407,18.313042 6.2079763,18.165923 6.9988823,18.137903 6.0185657,17.7771 5.3577532,17.604298 4.3511909,17.932317 l -0.722808,-0.672024 c 0.6405249,-0.220969 1.0529802,-0.255228 1.8514339,-0.271817 -0.837505,-0.430469 -1.5267107,-0.541838 -2.4368773,-0.35627 0,0 -0.6513614,-0.673226 -1.0385667,-0.762347 z"
     id="path1-6-4"
     style="stroke-width:0.999991" /></svg>

<?xml version="1.0" encoding="UTF-8"?>
<svg id="svg1" version="1.1" viewBox="0 0 24 24" xml:space="preserve" xmlns="http://www.w3.org/2000/svg"><path id="path1" d="m1.75 1.7513s7.831-0.37925 14.002 8.077c4.7355 6.4882 6.4985 12.423 6.4985 12.423l-1.9885-1.025c-1.476-2.5625-2.2448-3.6182-3.69-5.125-2.5932 0.7585-5.2992 0.66625-7.6465-2.05 2.05-0.574 3.69-0.44075 6.109-0.19475-2.7162-1.8552-4.5715-2.2652-7.134-1.8552l-1.025-2.05c1.845-0.3485 3.075-0.37925 4.8995 0.041-2.0193-1.4247-3.4235-2.2242-5.9245-2.091l-1.2402-1.9782c1.599-0.11275 2.5625 0.0615 4.3972 0.5125-1.6502-1.4965-3.157-2.173-5.3505-2.3062 0 0-1.0762-1.9372-1.9065-2.378z"/><path id="path1-6" d="m18.457 2.1606s2.9468 1.5162 3.4184 5.9159c0.36222 3.376-0.2467 5.9211-0.2467 5.9211l-0.51129-0.79548c0.0013-1.25-0.05702-1.7989-0.26762-2.656-1.1096-0.27042-2.0807-0.87609-2.3659-2.3665 0.87175 0.22314 1.4439 0.61853 2.2775 1.2198-0.60222-1.2532-1.1947-1.7954-2.2194-2.1869l0.05805-0.96706c0.74904 0.26236 1.2058 0.51107 1.7849 1.0505-0.43806-0.94832-0.78314-1.5378-1.7268-2.0176l-0.03591-0.98629c0.60917 0.29667 0.92504 0.5641 1.5014 1.117-0.28782-0.89659-0.69641-1.4627-1.4712-1.9751 0 0 0.01546-0.93662-0.19532-1.2734z" stroke-width=".99999"/><path id="path1-6-4" d="m2.0044 15.87s3.1558-1.0116 6.6003 1.766c2.6433 2.131 4.0124 4.3613 4.0124 4.3613l-0.92403-0.20096c-0.88296-0.8848-1.3124-1.2317-2.0673-1.6888-0.97582 0.5934-2.0908 0.85177-3.3463-4.6e-4 0.7742-0.45863 1.4584-0.58365 2.473-0.74785-1.312-0.46032-2.1143-0.42476-3.1157 0.02299l-0.64277-0.72487c0.71517-0.34413 1.214-0.49125 2.0049-0.51927-0.98032-0.3608-1.6411-0.5336-2.6477-0.20559l-0.72281-0.67202c0.64052-0.22097 1.053-0.25523 1.8514-0.27182-0.8375-0.43047-1.5267-0.54184-2.4369-0.35627 0 0-0.65136-0.67323-1.0386-0.76235z" stroke-width=".99999"/></svg>
